packages/calcite-ui-icons/icons/mosaic-method-minimum-24.svg

<?xml version="1.0" encoding="UTF-8"?><svg id="icons" xmlns="http://www.w3.org/2000/svg" viewBox="0 0 24 24"><defs><style>.cls-1{fill:none;}.cls-2{opacity:.5;}.cls-3{opacity:.25;}</style></defs><path class="cls-3" d="M2,5h2v2h-2v-2ZM5,10h2v-2h-2v2ZM7,3h2V1h-2v2ZM10,4v2h2v-2h-2Z"/><path class="cls-2" d="M8,8h2v2h-2v-2ZM10,3h2V1h-2v2ZM13,4v2h2v-2h-2Z"/><path d="M11,10h-1v-2h1v2ZM10,10c-.55273,0-1,.44727-1,1H1v-7h4v3c0,.55273.44727,1,1,1h-1v2h2v-2h1v2h2ZM4,8h-2v2h2v-2ZM4,5h-2v2h2v-2ZM16,7H6V0h10v7ZM9,4h-2v2h2v-2ZM9,1h-2v2h2V1ZM12,4h-2v2h2v-2ZM12,1h-2v2h2V1ZM15,4h-2v2h2v-2ZM15,1h-2v2h2V1ZM15.125,14.5127c-.80176-1.60449-2.73633-2.39844-2.99219-2.4834l-.13281-.04492v.77051l.06543.02441c.35059.12891,1.79395.83594,2.40527,2.06055.23438.46582.46094,1.32715.67969,2.16016.53223,2.0127,1.08301,3.87207,2.2998,3.87207,1.21875,0,1.76855-1.86133,2.30078-3.87891.22949-.87109.44629-1.69336.67676-2.15332.59863-1.19727,2.22754-1.91113,2.57227-2.04297v-.78809l-.15039.0498c-.02344.00684-2.24219.78711-3.07422,2.4541-.2627.52344-.48633,1.37109-.73047,2.29492-.47461,1.7998-.98926,3.33398-1.59473,3.33398-.60449,0-1.12012-1.53418-1.60254-3.36133-.2373-.89648-.46094-1.74414-.72266-2.26758ZM12,22h1v-1h-1v1ZM14,22h1v-1h-1v1ZM16,22h1v-1h-1v1ZM18,22h1v-1h-1v1ZM20,22h1v-1h-1v1ZM23,22v-1h-1v1h1ZM11,23v-12h-1v13h14v-1h-13Z"/><rect class="cls-1" width="24" height="24"/></svg>

<svg xmlns="http://www.w3.org/2000/svg" viewBox="0 0 24 24"><path d="M2 5h2v2H2V5zm3 5h2V8H5v2zm2-7h2V1H7v2zm3 1v2h2V4h-2z" opacity=".25"/><path d="M8 8h2v2H8V8zm2-5h2V1h-2v2zm3 1v2h2V4h-2z" opacity=".5"/><path d="M11 10h-1V8h1v2zm-1 0a1 1 0 0 0-1 1H1V4h4v3a1 1 0 0 0 1 1H5v2h2V8h1v2h2zM4 8H2v2h2V8zm0-3H2v2h2V5zm12 2H6V0h10v7zM9 4H7v2h2V4zm0-3H7v2h2V1zm3 3h-2v2h2V4zm0-3h-2v2h2V1zm3 3h-2v2h2V4zm0-3h-2v2h2V1zm.125 13.513c-.802-1.605-2.736-2.399-2.992-2.484L12 11.984v.77l.065.025c.351.13 1.794.836 2.406 2.06.234.467.46 1.328.68 2.161.532 2.013 1.082 3.872 2.3 3.872 1.218 0 1.768-1.861 2.3-3.879.23-.87.446-1.693.677-2.153.598-1.197 2.227-1.911 2.572-2.043v-.788l-.15.05c-.024.006-2.243.787-3.075 2.454-.262.523-.486 1.37-.73 2.295-.475 1.8-.99 3.334-1.595 3.334-.604 0-1.12-1.535-1.602-3.362-.238-.896-.461-1.744-.723-2.267zM12 22h1v-1h-1v1zm2 0h1v-1h-1v1zm2 0h1v-1h-1v1zm2 0h1v-1h-1v1zm2 0h1v-1h-1v1zm3 0v-1h-1v1h1zm-12 1V11h-1v13h14v-1H11z"/><path fill="none" d="M0 0h24v24H0z"/></svg>
